src/assets/svg/case.svg

<svg width="48" height="42" viewBox="0 0 48 42" fill="none" xmlns="http://www.w3.org/2000/svg">
<g clip-path="url(#clip0_14_2217)">
<path d="M39.2382 8.27002H7.82617V41.9837H39.2382V8.27002Z" fill="url(#paint0_linear_14_2217)"/>
<path d="M7.6955 8.27008C7.73341 8.27008 7.77132 8.28632 7.82548 8.30257C7.82548 19.5188 7.82548 30.7351 7.82548 41.9676C5.39375 42.1571 3.34114 41.5451 1.71097 39.9745C0.55739 38.8589 -0.000443514 37.5482 -0.000443514 36.0643C-0.000443514 30.8109 -0.000443514 25.5629 -0.000443514 20.3095C-0.000443514 18.3057 -0.00585938 16.3018 -0.00585938 14.2979C-0.00585938 11.877 1.29936 10.1169 3.69859 8.9254C4.93341 8.31882 6.30362 8.22675 7.6955 8.27008Z" fill="url(#paint1_linear_14_2217)"/>
<path d="M33.7514 8.26455C35.1541 8.26455 35.2949 8.26455 36.6922 8.26455C36.6922 19.5187 36.6922 30.735 36.6922 41.9729C27.1548 41.9729 19.9409 41.9729 10.3711 41.9729C10.3711 30.7404 10.3711 19.5241 10.3711 8.27538C11.7684 8.27538 12.0717 8.27538 13.496 8.27538C13.496 8.13457 13.496 8.02625 13.496 7.92335C13.496 6.71562 13.5015 5.50246 13.4906 4.29473C13.4798 3.44985 13.7073 2.71329 14.368 2.13921C14.8338 1.73844 15.3699 1.53264 15.9765 1.53264C17.8558 1.52722 19.7297 1.52722 21.609 1.52722C24.7665 1.52722 27.9293 1.53264 31.0868 1.52722C31.9154 1.52722 32.6032 1.79801 33.1448 2.42625C33.5781 2.92993 33.7405 3.52026 33.7405 4.18099C33.7351 5.45372 33.7405 6.72645 33.7405 7.99917C33.7351 8.06958 33.7405 8.15082 33.7514 8.26455ZM16.8864 8.26455C17.0164 8.26455 17.1138 8.26455 17.2113 8.26455C18.7061 8.26455 20.2063 8.26455 21.7011 8.26455C24.4957 8.26455 27.2957 8.26455 30.0902 8.26997C30.3123 8.26997 30.361 8.19956 30.361 7.98834C30.3502 7.04057 30.361 6.09279 30.361 5.14502C30.361 5.06919 30.3502 4.99337 30.3394 4.91213C25.8442 4.91213 21.3761 4.91213 16.8864 4.91213C16.8864 6.0278 16.8864 7.12181 16.8864 8.26455Z" fill="white"/>
<mask id="mask0_14_2217" style="mask-type:alpha" maskUnits="userSpaceOnUse" x="10" y="1" width="27" height="41">
<path d="M33.7514 8.26455C35.1541 8.26455 35.2949 8.26455 36.6922 8.26455C36.6922 19.5187 36.6922 30.735 36.6922 41.9729C27.1548 41.9729 19.9409 41.9729 10.3711 41.9729C10.3711 30.7404 10.3711 19.5241 10.3711 8.27538C11.7684 8.27538 12.0717 8.27538 13.496 8.27538C13.496 8.13457 13.496 8.02625 13.496 7.92335C13.496 6.71562 13.5015 5.50246 13.4906 4.29473C13.4798 3.44985 13.7073 2.71329 14.368 2.13921C14.8338 1.73844 15.3699 1.53264 15.9765 1.53264C17.8558 1.52722 19.7297 1.52722 21.609 1.52722C24.7665 1.52722 27.9293 1.53264 31.0868 1.52722C31.9154 1.52722 32.6032 1.79801 33.1448 2.42625C33.5781 2.92993 33.7405 3.52026 33.7405 4.18099C33.7351 5.45372 33.7405 6.72645 33.7405 7.99917C33.7351 8.06958 33.7405 8.15082 33.7514 8.26455ZM16.8864 8.26455C17.0164 8.26455 17.1138 8.26455 17.2113 8.26455C18.7061 8.26455 20.2063 8.26455 21.7011 8.26455C24.4957 8.26455 27.2957 8.26455 30.0902 8.26997C30.3123 8.26997 30.361 8.19956 30.361 7.98834C30.3502 7.04057 30.361 6.09279 30.361 5.14502C30.361 5.06919 30.3502 4.99337 30.3394 4.91213C25.8442 4.91213 21.3761 4.91213 16.8864 4.91213C16.8864 6.0278 16.8864 7.12181 16.8864 8.26455Z" fill="#F7F9FC"/>
</mask>
<g mask="url(#mask0_14_2217)">
<path d="M34.2918 0H12.3955V8.27544H34.2918V0Z" fill="url(#paint2_linear_14_2217)"/>
</g>
<path d="M47.2208 14.2112C47.2208 11.9798 46.0023 10.3172 43.8359 9.10944C42.5036 8.36747 40.9926 8.22665 39.4436 8.25915C39.2053 8.26457 39.2378 8.38913 39.2378 8.51911C39.2378 12.4185 39.2378 16.3125 39.2378 20.212C39.2378 27.063 39.2378 33.9087 39.2324 40.7597C39.2324 41.1551 39.2324 41.5505 39.2324 41.9783C40.2073 42.0108 41.1334 42.0162 42.0433 41.7996C45.1195 41.0739 47.2154 38.783 47.2154 36.0804C47.2262 28.7961 47.2208 21.5009 47.2208 14.2112Z" fill="url(#paint3_linear_14_2217)"/>
<path d="M26.0993 27.6155C26.0993 28.3142 26.0993 28.9749 26.0993 29.641C26.0993 30.3939 26.0993 31.1467 26.0993 31.894C26.0993 32.3436 25.8719 32.5819 25.4278 32.5819C24.2038 32.5873 22.9798 32.5873 21.7558 32.5819C21.3496 32.5819 21.1222 32.3273 21.1222 31.8995C21.1222 30.5563 21.1222 29.2132 21.1222 27.8701C21.1222 27.7942 21.1222 27.713 21.1222 27.6155C21.0192 27.6155 20.9434 27.6155 20.8622 27.6155C19.5407 27.6155 18.2138 27.6155 16.8924 27.6155C16.367 27.6155 16.1504 27.4043 16.1504 26.879C16.1504 25.7146 16.1504 24.5501 16.1504 23.3857C16.1504 22.855 16.3616 22.6438 16.8869 22.6438C18.203 22.6438 19.5191 22.6438 20.8351 22.6438C20.9218 22.6438 21.003 22.6438 21.1167 22.6438C21.1167 22.5571 21.1167 22.4867 21.1167 22.4163C21.1167 21.0732 21.1167 19.73 21.1167 18.3869C21.1167 17.8886 21.3388 17.672 21.837 17.672C23.0015 17.672 24.1659 17.672 25.3303 17.672C25.8773 17.672 26.0885 17.8778 26.0885 18.4356C26.0939 19.7679 26.0885 21.0948 26.0885 22.4271C26.0885 22.4921 26.0885 22.5571 26.0885 22.6492C26.1751 22.6492 26.251 22.6492 26.3214 22.6492C27.6645 22.6492 29.0076 22.6492 30.3508 22.6546C30.8436 22.6546 31.0548 22.8712 31.0548 23.3641C31.0548 24.5339 31.0548 25.7037 31.0548 26.8735C31.0548 27.4097 30.849 27.6155 30.3237 27.6155C28.986 27.6155 27.6483 27.6155 26.316 27.6209C26.2618 27.6155 26.1968 27.6155 26.0993 27.6155Z" fill="url(#paint4_linear_14_2217)"/>
</g>
<defs>
<linearGradient id="paint0_linear_14_2217" x1="7.82696" y1="25.1249" x2="39.2367" y2="25.1249" gradientUnits="userSpaceOnUse">
<stop stop-color="#B0F4FF"/>
<stop offset="1" stop-color="#69DCFC"/>
</linearGradient>
<linearGradient id="paint1_linear_14_2217" x1="-0.000443514" y1="25.1302" x2="7.82626" y2="25.1302" gradientUnits="userSpaceOnUse">
<stop stop-color="#6CBCFC"/>
<stop offset="1" stop-color="#458DFC"/>
</linearGradient>
<linearGradient id="paint2_linear_14_2217" x1="12.3932" y1="4.13684" x2="34.2909" y2="4.13684" gradientUnits="userSpaceOnUse">
<stop stop-color="#6CBCFC"/>
<stop offset="1" stop-color="#458DFC"/>
</linearGradient>
<linearGradient id="paint3_linear_14_2217" x1="39.2338" y1="25.1268" x2="47.2213" y2="25.1268" gradientUnits="userSpaceOnUse">
<stop stop-color="#6CBCFC"/>
<stop offset="1" stop-color="#458DFC"/>
</linearGradient>
<linearGradient id="paint4_linear_14_2217" x1="16.1537" y1="25.1323" x2="31.0657" y2="25.1323" gradientUnits="userSpaceOnUse">
<stop stop-color="#6CBCFC"/>
<stop offset="1" stop-color="#458DFC"/>
</linearGradient>
<clipPath id="clip0_14_2217">
<rect width="47.2209" height="42" fill="white"/>
</clipPath>
</defs>
</svg>

<svg width="48" height="42" fill="none" xmlns="http://www.w3.org/2000/svg"><g clip-path="url(#clip0_14_2217)"><path d="M39.238 8.27H7.826v33.714h31.412V8.27z" fill="url(#paint0_linear_14_2217)"/><path d="M7.696 8.27c.037 0 .075.016.13.033v33.665c-2.432.19-4.485-.423-6.115-1.994C.557 38.86 0 37.548 0 36.064V20.31c0-2.003-.006-4.007-.006-6.011 0-2.421 1.305-4.181 3.705-5.373 1.234-.606 2.605-.698 3.997-.655z" fill="url(#paint1_linear_14_2217)"/><path d="M33.751 8.265h2.941v33.708h-26.32V8.275h3.124v-.352c0-1.207.005-2.42-.005-3.628-.011-.845.216-1.582.877-2.156a2.4 2.4 0 011.608-.606c1.88-.006 3.754-.006 5.633-.006 3.157 0 6.32.006 9.478 0 .828 0 1.516.271 2.058.9.433.503.595 1.093.595 1.754-.005 1.273 0 2.545 0 3.818-.005.07 0 .152.011.266zm-16.865 0h4.815c2.795 0 5.595 0 8.39.005.221 0 .27-.07.27-.282-.01-.947 0-1.895 0-2.843 0-.076-.01-.152-.022-.233H16.886v3.353z" fill="#fff"/><mask id="a" style="mask-type:alpha" maskUnits="userSpaceOnUse" x="10" y="1" width="27" height="41"><path d="M33.751 8.265h2.941v33.708h-26.32V8.275h3.124v-.352c0-1.207.005-2.42-.005-3.628-.011-.845.216-1.582.877-2.156a2.4 2.4 0 011.608-.606c1.88-.006 3.754-.006 5.633-.006 3.157 0 6.32.006 9.478 0 .828 0 1.516.271 2.058.9.433.503.595 1.093.595 1.754-.005 1.273 0 2.545 0 3.818-.005.07 0 .152.011.266zm-16.865 0h4.815c2.795 0 5.595 0 8.39.005.221 0 .27-.07.27-.282-.01-.947 0-1.895 0-2.843 0-.076-.01-.152-.022-.233H16.886v3.353z" fill="#F7F9FC"/></mask><g mask="url(#a)"><path d="M34.292 0H12.395v8.275h21.897V0z" fill="url(#paint2_linear_14_2217)"/></g><path d="M47.22 14.211c0-2.231-1.218-3.894-3.384-5.102-1.332-.742-2.843-.882-4.392-.85-.239.006-.206.13-.206.26v11.693c0 6.851 0 13.697-.006 20.548v1.218c.975.033 1.901.038 2.811-.178 3.077-.726 5.172-3.017 5.172-5.72.011-7.284.006-14.58.006-21.869z" fill="url(#paint3_linear_14_2217)"/><path d="M26.1 27.616V31.894c0 .45-.228.688-.672.688-1.224.005-2.448.005-3.672 0-.406 0-.634-.255-.634-.683V27.87v-.255h-4.23c-.525 0-.742-.21-.742-.736v-3.493c0-.531.212-.742.737-.742H21.117v-.228-4.03c0-.497.222-.714.72-.714h3.493c.547 0 .759.206.759.764.005 1.332 0 2.659 0 3.991v.222h.232c1.343 0 2.687 0 4.03.006.493 0 .704.216.704.71v3.509c0 .536-.206.742-.731.742-1.338 0-2.676 0-4.008.005-.054-.005-.12-.005-.217-.005z" fill="url(#paint4_linear_14_2217)"/></g><defs><linearGradient id="paint0_linear_14_2217" x1="7.827" y1="25.125" x2="39.237" y2="25.125" gradientUnits="userSpaceOnUse"><stop stop-color="#B0F4FF"/><stop offset="1" stop-color="#69DCFC"/></linearGradient><linearGradient id="paint1_linear_14_2217" x1="0" y1="25.13" x2="7.826" y2="25.13" gradientUnits="userSpaceOnUse"><stop stop-color="#6CBCFC"/><stop offset="1" stop-color="#458DFC"/></linearGradient><linearGradient id="paint2_linear_14_2217" x1="12.393" y1="4.137" x2="34.291" y2="4.137" gradientUnits="userSpaceOnUse"><stop stop-color="#6CBCFC"/><stop offset="1" stop-color="#458DFC"/></linearGradient><linearGradient id="paint3_linear_14_2217" x1="39.234" y1="25.127" x2="47.221" y2="25.127" gradientUnits="userSpaceOnUse"><stop stop-color="#6CBCFC"/><stop offset="1" stop-color="#458DFC"/></linearGradient><linearGradient id="paint4_linear_14_2217" x1="16.154" y1="25.132" x2="31.066" y2="25.132" gradientUnits="userSpaceOnUse"><stop stop-color="#6CBCFC"/><stop offset="1" stop-color="#458DFC"/></linearGradient><clipPath id="clip0_14_2217"><path fill="#fff" d="M0 0h47.221v42H0z"/></clipPath></defs></svg>
